Newaita-dark/actions/16/system-suspend-hibernate.svg

<svg height="16" viewBox="0 0 16 16" width="16" xmlns="http://www.w3.org/2000/svg"><g fill="#78909c"><path d="m7.9375 1.449219c-3.664062 0-6.613281 2.949219-6.613281 6.613281s2.949219 6.617188 6.613281 6.617188 6.617188-2.953126 6.617188-6.617188-2.953126-6.613281-6.617188-6.613281zm0 1.320312c2.933594 0 5.292969 2.363281 5.292969 5.292969 0 2.933594-2.359375 5.292969-5.292969 5.292969-2.929688 0-5.292969-2.359375-5.292969-5.292969 0-2.929688 2.363281-5.292969 5.292969-5.292969zm0 0"/><path d="m8.601562 5.417969v5.292969c0 .179687-.148437.328124-.332031.328124h-.660156c-.183594 0-.332031-.148437-.332031-.328124v-5.292969c0-.183594.148437-.332031.332031-.332031h.660156c.183594 0 .332031.148437.332031.332031zm0 0"/><path d="m10.585938 8.726562h-5.292969c-.183594 0-.332031-.148437-.332031-.332031v-.660156c0-.183594.148437-.332031.332031-.332031h5.292969c.179687 0 .328124.148437.328124.332031v.660156c0 .183594-.148437.332031-.328124.332031zm0 0"/><path d="m9.339844 10.402344-3.742188-3.742188c-.128906-.128906-.128906-.339844 0-.46875l.46875-.46875c.128906-.128906.339844-.128906.46875 0l3.742188 3.742188c.128906.132812.128906.339844 0 .46875l-.46875.46875c-.128906.128906-.335938.128906-.46875 0zm0 0"/><path d="m5.597656 9.464844 3.742188-3.742188c.132812-.128906.339844-.128906.46875 0l.46875.46875c.128906.128906.128906.339844 0 .46875l-3.742188 3.742188c-.128906.128906-.339844.128906-.46875 0l-.46875-.46875c-.128906-.128906-.128906-.335938 0-.46875zm0 0"/></g></svg>

<?xml version="1.0" encoding="UTF-8"?>
<svg xmlns="http://www.w3.org/2000/svg" xmlns:xlink="http://www.w3.org/1999/xlink" width="16px" height="16px" viewBox="0 0 16 16" version="1.1">
<g id="surface1">
<path style=" stroke:none;fill-rule:nonzero;fill:rgb(47.058824%,56.470591%,61.176473%);fill-opacity:1;" d="M 7.9375 1.449219 C 4.273438 1.449219 1.324219 4.398438 1.324219 8.0625 C 1.324219 11.726562 4.273438 14.679688 7.9375 14.679688 C 11.601562 14.679688 14.554688 11.726562 14.554688 8.0625 C 14.554688 4.398438 11.601562 1.449219 7.9375 1.449219 Z M 7.9375 2.769531 C 10.871094 2.769531 13.230469 5.132812 13.230469 8.0625 C 13.230469 10.996094 10.871094 13.355469 7.9375 13.355469 C 5.007812 13.355469 2.644531 10.996094 2.644531 8.0625 C 2.644531 5.132812 5.007812 2.769531 7.9375 2.769531 Z M 7.9375 2.769531 "/>
<path style=" stroke:none;fill-rule:nonzero;fill:rgb(47.058824%,56.470591%,61.176473%);fill-opacity:1;" d="M 8.601562 5.417969 L 8.601562 10.710938 C 8.601562 10.890625 8.453125 11.039062 8.269531 11.039062 L 7.609375 11.039062 C 7.425781 11.039062 7.277344 10.890625 7.277344 10.710938 L 7.277344 5.417969 C 7.277344 5.234375 7.425781 5.085938 7.609375 5.085938 L 8.269531 5.085938 C 8.453125 5.085938 8.601562 5.234375 8.601562 5.417969 Z M 8.601562 5.417969 "/>
<path style=" stroke:none;fill-rule:nonzero;fill:rgb(47.058824%,56.470591%,61.176473%);fill-opacity:1;" d="M 10.585938 8.726562 L 5.292969 8.726562 C 5.109375 8.726562 4.960938 8.578125 4.960938 8.394531 L 4.960938 7.734375 C 4.960938 7.550781 5.109375 7.402344 5.292969 7.402344 L 10.585938 7.402344 C 10.765625 7.402344 10.914062 7.550781 10.914062 7.734375 L 10.914062 8.394531 C 10.914062 8.578125 10.765625 8.726562 10.585938 8.726562 Z M 10.585938 8.726562 "/>
<path style=" stroke:none;fill-rule:nonzero;fill:rgb(47.058824%,56.470591%,61.176473%);fill-opacity:1;" d="M 9.339844 10.402344 L 5.597656 6.660156 C 5.46875 6.53125 5.46875 6.320312 5.597656 6.191406 L 6.066406 5.722656 C 6.195312 5.59375 6.40625 5.59375 6.535156 5.722656 L 10.277344 9.464844 C 10.40625 9.597656 10.40625 9.804688 10.277344 9.933594 L 9.808594 10.402344 C 9.679688 10.53125 9.472656 10.53125 9.339844 10.402344 Z M 9.339844 10.402344 "/>
<path style=" stroke:none;fill-rule:nonzero;fill:rgb(47.058824%,56.470591%,61.176473%);fill-opacity:1;" d="M 5.597656 9.464844 L 9.339844 5.722656 C 9.472656 5.59375 9.679688 5.59375 9.808594 5.722656 L 10.277344 6.191406 C 10.40625 6.320312 10.40625 6.53125 10.277344 6.660156 L 6.535156 10.402344 C 6.40625 10.53125 6.195312 10.53125 6.066406 10.402344 L 5.597656 9.933594 C 5.46875 9.804688 5.46875 9.597656 5.597656 9.464844 Z M 5.597656 9.464844 "/>
</g>
</svg>
